icons/evolvere-blue-folders-flat-vivid-dark-fallback/apps/64/rhythmbox.svg

<?xml version="1.0" encoding="UTF-8" standalone="no"?>
<!-- Created with Inkscape (http://www.inkscape.org/) -->

<svg
   xmlns:dc="http://purl.org/dc/elements/1.1/"
   xmlns:cc="http://creativecommons.org/ns#"
   xmlns:rdf="http://www.w3.org/1999/02/22-rdf-syntax-ns#"
   xmlns:svg="http://www.w3.org/2000/svg"
   xmlns="http://www.w3.org/2000/svg"
   xmlns:sodipodi="http://sodipodi.sourceforge.net/DTD/sodipodi-0.dtd"
   xmlns:inkscape="http://www.inkscape.org/namespaces/inkscape"
   width="64"
   height="64"
   id="svg13094"
   version="1.1"
   inkscape:version="0.91+devel r"
   sodipodi:docname="rhythmbox.svg">
  <sodipodi:namedview
     id="base"
     pagecolor="#ffffff"
     bordercolor="#666666"
     borderopacity="1.0"
     inkscape:pageopacity="0"
     inkscape:pageshadow="2"
     inkscape:zoom="11.313709"
     inkscape:cx="34.850103"
     inkscape:cy="32.113847"
     inkscape:document-units="px"
     inkscape:current-layer="g4183"
     showgrid="true"
     inkscape:snap-bbox="true"
     inkscape:bbox-paths="true"
     inkscape:bbox-nodes="true"
     inkscape:snap-bbox-edge-midpoints="true"
     inkscape:snap-bbox-midpoints="true"
     inkscape:object-paths="true"
     inkscape:snap-intersection-paths="true"
     inkscape:object-nodes="true"
     inkscape:snap-smooth-nodes="true"
     inkscape:snap-midpoints="true"
     inkscape:snap-object-midpoints="true"
     inkscape:snap-center="true"
     showguides="false"
     inkscape:guide-bbox="true"
     inkscape:window-width="1920"
     inkscape:window-height="1023"
     inkscape:window-x="-10"
     inkscape:window-y="35"
     inkscape:window-maximized="1"
     inkscape:snap-global="true"
     fit-margin-top="0"
     fit-margin-left="0"
     fit-margin-right="0"
     fit-margin-bottom="0"
     showborder="true"
     inkscape:showpageshadow="false"
     inkscape:snap-page="true">
    <inkscape:grid
       type="xygrid"
       id="grid3075"
       empspacing="5"
       visible="true"
       enabled="true"
       snapvisiblegridlinesonly="true"
       originx="1.6362304e-08px"
       originy="18px" />
    <sodipodi:guide
       orientation="0,1"
       position="-11,30"
       id="guide9148" />
    <sodipodi:guide
       orientation="1,0"
       position="32,70"
       id="guide9150" />
  </sodipodi:namedview>
  <defs
     id="defs13096" />
  <metadata
     id="metadata13099">
    <rdf:RDF>
      <cc:Work
         rdf:about="">
        <dc:format>image/svg+xml</dc:format>
        <dc:type
           rdf:resource="http://purl.org/dc/dcmitype/StillImage" />
        <dc:title></dc:title>
      </cc:Work>
    </rdf:RDF>
  </metadata>
  <path
     id="path6538"
     d="m 0,4 0,30 0,28 2,2 30,0 30,0 2,-2 L 64,34 64,4 32,4 0,4 Z"
     style="color:#000000;display:inline;overflow:visible;visibility:visible;fill:#aeb4c3;fill-opacity:1;fill-rule:nonzero;stroke:none;stroke-width:2.28571415;marker:none;enable-background:accumulate"
     inkscape:connector-curvature="0" />
  <path
     inkscape:connector-curvature="0"
     style="color:#000000;display:inline;overflow:visible;visibility:visible;fill:#e7ecf0;fill-opacity:1;fill-rule:nonzero;stroke:none;marker:none;enable-background:accumulate"
     d="M 2,0 0,1 0,4 19.5625,4 39.125,4 64,4 64,1 62,0 39.125,0 19.5625,0 2,0 Z"
     id="path6688" />
  <g
     id="g3043"
     inkscape:export-filename="folder.png"
     inkscape:export-xdpi="90"
     inkscape:export-ydpi="90"
     transform="translate(-0.62500009,0.082283)" />
  <g
     id="scalable"
     transform="matrix(1.0385892,0,0,1.0385892,1214.7222,1878.8121)"
     inkscape:label="#g3701"
     style="fill:#ffffff" />
  <path
     style="opacity:1;fill:#f2f5f7;fill-opacity:1;fill-rule:nonzero;stroke-width:1;stroke-linecap:butt;stroke-linejoin:miter;stroke-miterlimit:4;stroke-dasharray:none;stroke-dashoffset:0;stroke-opacity:1"
     d="M 0,3 0,6 2,4 Z"
     id="path4298"
     inkscape:connector-curvature="0"
     sodipodi:nodetypes="cccc" />
  <path
     inkscape:connector-curvature="0"
     style="opacity:1;fill:#ccd1db;fill-opacity:1;stroke:none;stroke-width:1;stroke-linecap:butt;stroke-linejoin:miter;stroke-miterlimit:4;stroke-dasharray:none;stroke-dashoffset:0;stroke-opacity:1;marker:none"
     id="path3028"
     d="M 64,6 62,4 64,3 Z" />
  <g
     id="g4183">
    <path
       transform="matrix(0.70339798,0,0,0.70339798,17.285094,16.685927)"
       d="m 62.148182,58.734989 a 4.2650108,4.2650108 0 1 1 -8.530022,0 4.2650108,4.2650108 0 1 1 8.530022,0 z"
       sodipodi:ry="4.2650108"
       sodipodi:rx="4.2650108"
       sodipodi:cy="58.734989"
       sodipodi:cx="57.883171"
       id="path3083"
       style="color:#000000;fill:#002146;fill-opacity:0.4159213;fill-rule:nonzero;stroke:none;stroke-width:1.42167028;marker:none;visibility:visible;display:inline;overflow:visible;enable-background:accumulate;opacity:1;stroke-linecap:butt;stroke-linejoin:miter;stroke-miterlimit:4;stroke-dasharray:none;stroke-dashoffset:0;stroke-opacity:1"
       sodipodi:type="arc" />
    <g
       id="g4306">
      <path
         sodipodi:nodetypes="scsscsccsscscsscscssccs"
         style="color:#000000;display:inline;overflow:visible;visibility:visible;fill:#002146;fill-opacity:0.0957066;fill-rule:nonzero;stroke:none;stroke-width:1;marker:none;enable-background:accumulate"
         d="m 36,15 c -3.332425,0 -6.484881,0.725079 -9.34375,2 L 18,17 c -1.662,0 -3,1.338 -3,3 l 0,8.65625 C 13.725079,31.515119 13,34.667575 13,38 c 0,3.332425 0.725079,6.484881 2,9.34375 L 13,55 15.612984,57.821668 C 16.225908,58.483542 17.024258,59 18,59 l 8.65625,0 c 2.858869,1.274921 6.011325,2 9.34375,2 3.332425,0 6.484881,-0.725079 9.34375,-2 L 54,59 c 1.662,0 3,-1.338 3,-3 l 0,-8.65625 C 58.274921,44.484881 59,41.332425 59,38 59,34.667575 58.274921,31.515119 57,28.65625 L 57,20 c 0,-0.902662 -0.428965,-1.672911 -1.021588,-2.258818 L 52.96875,14.765625 45.34375,17 C 42.484881,15.725079 39.332425,15 36,15 Z"
         id="path4216"
         inkscape:connector-curvature="0" />
      <path
         inkscape:connector-curvature="0"
         style="color:#000000;display:inline;overflow:visible;visibility:visible;fill:#3e5979;fill-opacity:1;fill-rule:nonzero;stroke:none;stroke-width:1;marker:none;enable-background:accumulate"
         d="m 32,11 c -3.332425,0 -6.484881,0.725079 -9.34375,2 L 14,13 c -1.662,0 -3,1.338 -3,3 l 0,8.65625 C 9.7250793,27.515119 9,30.667575 9,34 c 0,3.332425 0.7250793,6.484881 2,9.34375 L 11,52 c 0,1.662 1.338,3 3,3 l 8.65625,0 c 2.858869,1.274921 6.011325,2 9.34375,2 3.332425,0 6.484881,-0.725079 9.34375,-2 L 50,55 c 1.662,0 3,-1.338 3,-3 l 0,-8.65625 C 54.274921,40.484881 55,37.332425 55,34 55,30.667575 54.274921,27.515119 53,24.65625 L 53,16 c 0,-1.662 -1.338,-3 -3,-3 l -8.65625,0 C 38.484881,11.725079 35.332425,11 32,11 Z"
         id="path4208" />
      <path
         id="path4192"
         d="m 48.25,17.75 -32.5,32.5 C 19.912181,54.412181 25.648726,57 32,57 c 3.332425,0 6.484881,-0.725079 9.34375,-2 L 50,55 c 1.662,0 3,-1.338 3,-3 l 0,-8.65625 C 54.274921,40.484881 55,37.332425 55,34 55,27.648726 52.412181,21.912181 48.25,17.75 Z"
         style="color:#000000;display:inline;overflow:visible;visibility:visible;fill:#000000;fill-opacity:0.12190815;fill-rule:nonzero;stroke:none;stroke-width:1;marker:none;enable-background:accumulate"
         inkscape:connector-curvature="0" />
      <circle
         r="17"
         cy="34"
         cx="32"
         transform="matrix(1.2352941,0,0,1.2352941,-7.529413,-8.000001)"
         id="path4199"
         style="color:#000000;display:inline;overflow:visible;visibility:visible;fill:#000000;fill-opacity:0.2159498;fill-rule:nonzero;stroke:none;stroke-width:0.80952382;marker:none;enable-background:accumulate" />
      <circle
         r="17"
         cy="34"
         cx="32"
         id="path4248"
         style="color:#000000;display:inline;overflow:visible;visibility:visible;fill:#d69127;fill-opacity:1;fill-rule:nonzero;stroke:none;stroke-width:1;marker:none;enable-background:accumulate" />
      <path
         inkscape:connector-curvature="0"
         id="path4288"
         d="M 44.013672,21.986328 19.986328,46.013672 A 17,17 0 0 0 32,51 17,17 0 0 0 49,34 17,17 0 0 0 44.013672,21.986328 Z"
         style="color:#000000;display:inline;overflow:visible;visibility:visible;opacity:1;fill:#eeb32e;fill-opacity:1;fill-rule:nonzero;stroke:none;stroke-width:1;stroke-linecap:butt;stroke-linejoin:miter;stroke-miterlimit:4;stroke-dasharray:none;stroke-dashoffset:0;stroke-opacity:1;marker:none;enable-background:accumulate" />
      <circle
         r="17"
         cy="34"
         cx="32"
         style="color:#000000;display:inline;overflow:visible;visibility:visible;fill:#3e5979;fill-opacity:1;fill-rule:nonzero;stroke:none;stroke-width:1;marker:none;enable-background:accumulate"
         id="path4159"
         transform="matrix(0.52941166,0,0,0.52941166,15.058829,16.000006)" />
      <circle
         r="17"
         cy="34"
         cx="32"
         transform="matrix(0.05882353,0,0,0.05882353,13.117647,15)"
         id="path4165"
         style="color:#000000;display:inline;overflow:visible;visibility:visible;fill:#b6c9d1;fill-opacity:1;fill-rule:nonzero;stroke:none;stroke-width:1;marker:none;enable-background:accumulate" />
      <circle
         r="17"
         cy="34"
         cx="32"
         style="color:#000000;display:inline;overflow:visible;visibility:visible;fill:#b6c9d1;fill-opacity:1;fill-rule:nonzero;stroke:none;stroke-width:1;marker:none;enable-background:accumulate"
         id="path4163"
         transform="matrix(0,0.05882353,-0.05882353,0,51,15.117647)" />
      <circle
         r="17"
         cy="34"
         cx="32"
         style="color:#000000;display:inline;overflow:visible;visibility:visible;fill:#b6c9d1;fill-opacity:1;fill-rule:nonzero;stroke:none;stroke-width:1;marker:none;enable-background:accumulate"
         id="path4167"
         transform="matrix(0.05882353,0,0,0.05882353,47.117647,49)" />
      <circle
         r="17"
         cy="34"
         cx="32"
         transform="matrix(0,0.05882353,-0.05882353,0,17,49.117647)"
         id="path3377"
         style="color:#000000;display:inline;overflow:visible;visibility:visible;fill:#b6c9d1;fill-opacity:1;fill-rule:nonzero;stroke:none;stroke-width:1;marker:none;enable-background:accumulate" />
      <rect
         inkscape:transform-center-x="-1.2374383"
         transform="rotate(-45)"
         inkscape:transform-center-y="1.2374378"
         ry="7"
         rx="7"
         y="39.669048"
         x="-8.4142132"
         height="17.500002"
         width="14"
         id="rect4286"
         style="color:#000000;display:inline;overflow:visible;visibility:visible;opacity:1;fill:#002146;fill-opacity:0.0957066;fill-rule:nonzero;stroke:none;stroke-width:1;stroke-linecap:butt;stroke-linejoin:miter;stroke-miterlimit:4;stroke-dasharray:none;stroke-dashoffset:0;stroke-opacity:1;marker:none;enable-background:accumulate" />
      <circle
         r="17"
         cy="34"
         cx="32"
         style="color:#000000;display:inline;overflow:visible;visibility:visible;fill:#446285;fill-opacity:1;fill-rule:nonzero;stroke:none;stroke-width:1;marker:none;enable-background:accumulate"
         id="path4161"
         transform="matrix(0.41176458,0,0,0.41176458,18.823535,20.000007)" />
    </g>
  </g>
</svg>

<svg xmlns="http://www.w3.org/2000/svg" viewBox="0 0 64 64"><g color="#000"><path d="m0 4v30 28l2 2h30 30l2-2v-28-30h-32-32" fill="#aeb4c3"/><path d="m2 0l-2 1v3h19.563 19.563 24.875v-3l-2-1h-22.875-19.563-17.563" fill="#e7ecf0"/></g><path d="m0 3v3l2-2" fill="#f2f5f7"/><path d="m64 6l-2-2 2-1" fill="#ccd1db"/><g color="#000"><g fill="#002146"><path transform="matrix(.7034 0 0 .7034 17.285 16.686)" d="m62.14818 58.734989a4.265011 4.265011 0 1 1 -8.530022 0 4.265011 4.265011 0 1 1 8.530022 0" fill-opacity=".416"/><path d="m36 15c-3.332 0-6.485.725-9.344 2h-8.656c-1.662 0-3 1.338-3 3v8.656c-1.275 2.859-2 6.01-2 9.344 0 3.332.725 6.485 2 9.344l-2 7.656 2.613 2.822c.613.662 1.411 1.178 2.387 1.178h8.656c2.859 1.275 6.01 2 9.344 2 3.332 0 6.485-.725 9.344-2h8.656c1.662 0 3-1.338 3-3v-8.656c1.275-2.859 2-6.01 2-9.344 0-3.332-.725-6.485-2-9.344v-8.656c0-.903-.429-1.673-1.022-2.259l-3.01-2.976-7.625 2.234c-2.859-1.275-6.01-2-9.344-2" fill-opacity=".096"/></g><path d="m32 11c-3.332 0-6.485.725-9.344 2h-8.656c-1.662 0-3 1.338-3 3v8.656c-1.275 2.859-2 6.01-2 9.344 0 3.332.725 6.485 2 9.344v8.656c0 1.662 1.338 3 3 3h8.656c2.859 1.275 6.01 2 9.344 2 3.332 0 6.485-.725 9.344-2h8.656c1.662 0 3-1.338 3-3v-8.656c1.275-2.859 2-6.01 2-9.344 0-3.332-.725-6.485-2-9.344v-8.656c0-1.662-1.338-3-3-3h-8.656c-2.859-1.275-6.01-2-9.344-2" fill="#3e5979"/><path d="m48.25 17.75l-32.5 32.5c4.162 4.162 9.899 6.75 16.25 6.75 3.332 0 6.485-.725 9.344-2h8.656c1.662 0 3-1.338 3-3v-8.656c1.275-2.859 2-6.01 2-9.344 0-6.351-2.588-12.09-6.75-16.25" fill-opacity=".122"/><circle r="17" cy="34" cx="32" transform="matrix(1.23529 0 0 1.23529-7.529-8)" fill-opacity=".216"/><circle r="17" cy="34" cx="32" fill="#d69127"/><path d="m44.01 21.986l-24.03 24.03a17 17 0 0 0 12.01367 4.986328 17 17 0 0 0 17 -17 17 17 0 0 0 -4.986328 -12.01367" fill="#eeb32e"/><circle r="17" cy="34" cx="32" transform="matrix(.52941 0 0 .52941 15.06 16)" fill="#3e5979"/><g fill="#b6c9d1"><circle r="17" cy="34" cx="32" transform="matrix(.05882 0 0 .05882 13.12 15)"/><circle r="17" cy="34" cx="32" transform="matrix(0 .05882-.05882 0 51 15.12)"/><circle r="17" cy="34" cx="32" transform="matrix(.05882 0 0 .05882 47.12 49)"/><circle r="17" cy="34" cx="32" transform="matrix(0 .05882-.05882 0 17 49.12)"/></g><rect transform="matrix(.70711-.70711.70711.70711 0 0)" rx="7" y="39.669" x="-8.414" height="17.5" width="14" fill-opacity=".096" fill="#002146"/><circle r="17" cy="34" cx="32" transform="matrix(.41176 0 0 .41176 18.824 20)" fill="#446285"/></g></svg>
